assets/dude/That–Willie.svg

<svg width="379" height="106" viewBox="0 0 379 106" fill="none" xmlns="http://www.w3.org/2000/svg">
<path d="M88.0387 9.35993C87.3387 8.93993 71.2387 4.45993 67.4587 4.45993C66.6187 4.45993 65.7787 9.49994 64.9387 9.49994C64.0987 9.49994 63.3987 4.31994 62.4187 3.19993C61.4387 2.07993 52.3387 0.679932 44.7787 0.679932C37.2187 0.679932 28.1187 2.07993 27.1387 3.19993C26.1587 4.31994 25.4587 9.49994 24.6187 9.49994C23.7787 9.49994 22.9387 4.45993 22.0987 4.45993C18.3187 4.45993 2.21871 8.93993 1.51871 9.35993C0.818711 9.77993 0.678711 10.0599 0.678711 10.7599C0.678711 11.4599 3.19871 20.8399 3.19871 39.7399V51.0799C3.19871 51.7799 3.75871 52.3399 4.45871 52.3399H12.0187C12.7187 52.3399 13.2787 51.7799 13.2787 51.0799V49.8199C13.2787 44.9199 17.1987 40.9999 22.0987 40.9999H38.4787C39.1787 40.9999 39.7387 41.5599 39.7387 42.2599V67.4599C39.7387 68.1599 39.1787 68.7199 38.4787 68.7199H24.6187C23.9187 68.7199 23.3587 69.2799 23.3587 69.9799C23.3587 88.8799 20.8387 98.2599 20.8387 98.9599C20.8387 99.6599 20.9787 99.9399 21.6787 100.36C22.3787 100.78 38.4787 105.26 42.2587 105.26C43.0987 105.26 43.9387 100.22 44.7787 100.22C45.6187 100.22 46.4587 105.26 47.2987 105.26C51.0787 105.26 67.1787 100.78 67.8787 100.36C68.5787 99.9399 68.7187 99.6599 68.7187 98.9599C68.7187 98.2599 66.1987 88.8799 66.1987 69.9799C66.1987 69.2799 65.6387 68.7199 64.9387 68.7199H51.0787C50.3787 68.7199 49.8187 68.1599 49.8187 67.4599V42.2599C49.8187 41.5599 50.3787 40.9999 51.0787 40.9999H67.4587C72.3587 40.9999 76.2787 44.9199 76.2787 49.8199V51.0799C76.2787 51.7799 76.8387 52.3399 77.5387 52.3399H85.0987C85.7987 52.3399 86.3587 51.7799 86.3587 51.0799V39.7399C86.3587 20.8399 88.8787 11.4599 88.8787 10.7599C88.8787 10.0599 88.7387 9.77993 88.0387 9.35993Z" fill="#FF1C31"/>
<path d="M190.817 68.7199H176.957C176.257 68.7199 175.697 68.1599 175.697 67.4599V42.2599C175.697 41.5599 176.257 40.9999 176.957 40.9999H190.817C191.517 40.9999 192.077 40.4399 192.077 39.7399C192.077 20.8399 194.597 11.4599 194.597 10.7599C194.597 10.0599 194.457 9.77993 193.757 9.35993C193.057 8.93993 176.957 4.45993 173.177 4.45993C172.337 4.45993 171.497 9.49994 170.657 9.49994C169.817 9.49994 168.977 4.45993 168.137 4.45993C164.357 4.45993 148.257 8.93993 147.557 9.35993C146.857 9.77993 146.717 10.0599 146.717 10.7599C146.717 11.4599 149.237 20.8399 149.237 39.7399C149.237 40.4399 149.797 40.9999 150.497 40.9999H164.357C165.057 40.9999 165.617 41.5599 165.617 42.2599V49.8199C165.617 50.5199 165.057 51.0799 164.357 51.0799H124.037C123.337 51.0799 122.777 50.5199 122.777 49.8199V42.2599C122.777 41.5599 123.337 40.9999 124.037 40.9999H137.897C138.597 40.9999 139.157 40.4399 139.157 39.7399C139.157 20.8399 141.677 11.4599 141.677 10.7599C141.677 10.0599 141.537 9.77993 140.837 9.35993C140.137 8.93993 124.037 4.45993 120.257 4.45993C119.417 4.45993 118.577 9.49994 117.737 9.49994C116.897 9.49994 116.057 4.45993 115.217 4.45993C111.437 4.45993 95.3373 8.93993 94.6373 9.35993C93.9373 9.77993 93.7973 10.0599 93.7973 10.7599C93.7973 11.4599 96.3173 20.8399 96.3173 39.7399C96.3173 40.4399 96.8773 40.9999 97.5773 40.9999H111.437C112.137 40.9999 112.697 41.5599 112.697 42.2599V67.4599C112.697 68.1599 112.137 68.7199 111.437 68.7199H97.5773C96.8773 68.7199 96.3173 69.2799 96.3173 69.9799C96.3173 88.8799 93.7973 98.2599 93.7973 98.9599C93.7973 99.6599 93.9373 99.9399 94.6373 100.36C95.3373 100.78 111.437 105.26 115.217 105.26C116.057 105.26 116.897 100.22 117.737 100.22C118.577 100.22 119.417 105.26 120.257 105.26C124.037 105.26 140.137 100.78 140.837 100.36C141.537 99.9399 141.677 99.6599 141.677 98.9599C141.677 98.2599 139.157 88.8799 139.157 69.9799C139.157 69.2799 138.597 68.7199 137.897 68.7199H124.037C123.337 68.7199 122.777 68.1599 122.777 67.4599V59.8999C122.777 59.1999 123.337 58.6399 124.037 58.6399H164.357C165.057 58.6399 165.617 59.1999 165.617 59.8999V67.4599C165.617 68.1599 165.057 68.7199 164.357 68.7199H150.497C149.797 68.7199 149.237 69.2799 149.237 69.9799C149.237 88.8799 146.717 98.2599 146.717 98.9599C146.717 99.6599 146.857 99.9399 147.557 100.36C148.257 100.78 164.357 105.26 168.137 105.26C168.977 105.26 169.817 100.22 170.657 100.22C171.497 100.22 172.337 105.26 173.177 105.26C176.957 105.26 193.057 100.78 193.757 100.36C194.457 99.9399 194.597 99.6599 194.597 98.9599C194.597 98.2599 192.077 88.8799 192.077 69.9799C192.077 69.2799 191.517 68.7199 190.817 68.7199Z" fill="#FF1C31"/>
<path d="M297.748 69.9799C297.748 69.2799 297.188 68.7199 296.488 68.7199H284.308C283.608 68.7199 282.908 68.1599 282.208 67.0399L266.528 42.3999C266.528 42.3999 266.248 41.9799 266.248 41.5599C266.248 41.2799 266.528 40.9999 267.088 40.9999H270.028C270.728 40.9999 271.288 40.4399 271.288 39.7399C271.288 20.8399 273.808 11.4599 273.808 10.7599C273.808 10.0599 273.668 9.77993 272.968 9.35993C272.268 8.93993 256.168 4.45993 252.388 4.45993C251.548 4.45993 250.708 9.49994 249.868 9.49994C249.028 9.49994 248.188 4.45993 247.348 4.45993C243.568 4.45993 227.468 8.93993 226.768 9.35993C226.068 9.77993 225.928 10.0599 225.928 10.7599C225.928 11.4599 228.448 20.8399 228.448 39.7399C228.448 40.4399 229.008 40.9999 229.708 40.9999H234.328C234.888 40.9999 235.168 41.2799 235.168 41.5599C235.168 41.9799 234.888 42.3999 234.888 42.3999L219.208 67.0399C218.508 68.1599 218.088 68.7199 217.388 68.7199H203.248C202.548 68.7199 201.988 69.2799 201.988 69.9799C201.988 88.8799 199.468 98.2599 199.468 98.9599C199.468 99.6599 199.608 99.9399 200.308 100.36C201.008 100.78 217.108 105.26 220.888 105.26C221.728 105.26 222.568 100.22 223.408 100.22C224.248 100.22 225.088 105.26 225.928 105.26C229.708 105.26 245.808 100.78 246.508 100.36C247.208 99.9399 247.348 99.6599 247.348 98.9599C247.348 98.2599 244.828 88.8799 244.828 69.9799C244.828 69.2799 244.268 68.7199 243.568 68.7199H230.268C229.708 68.7199 229.288 68.7199 229.288 68.4399C229.288 68.0199 229.568 67.5999 229.568 67.5999L232.928 62.1399C233.628 61.0199 234.048 60.4599 234.748 60.4599H262.188C262.888 60.4599 263.308 61.0199 264.008 62.1399L267.228 67.3199C267.228 67.3199 267.508 67.7399 267.508 68.1599C267.508 68.4399 267.228 68.7199 266.668 68.7199H256.168C255.468 68.7199 254.908 69.2799 254.908 69.9799C254.908 88.8799 252.388 98.2599 252.388 98.9599C252.388 99.6599 252.528 99.9399 253.228 100.36C253.928 100.78 270.028 105.26 273.808 105.26C274.648 105.26 275.488 100.22 276.328 100.22C277.168 100.22 278.008 105.26 278.848 105.26C282.628 105.26 298.728 100.78 299.428 100.36C300.128 99.9399 300.268 99.6599 300.268 98.9599C300.268 98.2599 297.748 88.8799 297.748 69.9799ZM256.728 52.8999H240.208C239.648 52.8999 239.368 52.6199 239.368 52.3399C239.368 51.9199 239.648 51.4999 239.648 51.4999L245.108 42.6799C245.808 41.5599 246.228 40.9999 246.928 40.9999H249.868C250.568 40.9999 250.988 41.5599 251.688 42.6799L257.288 51.4999C257.288 51.4999 257.568 51.9199 257.568 52.3399C257.568 52.6199 257.288 52.8999 256.728 52.8999Z" fill="#FF1C31"/>
<path d="M377.472 9.35993C376.772 8.93993 360.672 4.45993 356.892 4.45993C356.052 4.45993 355.212 9.49994 354.372 9.49994C353.532 9.49994 352.832 4.31994 351.852 3.19993C350.872 2.07993 341.772 0.679932 334.212 0.679932C326.652 0.679932 317.552 2.07993 316.572 3.19993C315.592 4.31994 314.892 9.49994 314.052 9.49994C313.212 9.49994 312.372 4.45993 311.532 4.45993C307.752 4.45993 291.652 8.93993 290.952 9.35993C290.252 9.77993 290.112 10.0599 290.112 10.7599C290.112 11.4599 292.632 20.8399 292.632 39.7399V51.0799C292.632 51.7799 293.192 52.3399 293.892 52.3399H301.452C302.152 52.3399 302.712 51.7799 302.712 51.0799V49.8199C302.712 44.9199 306.632 40.9999 311.532 40.9999H327.912C328.612 40.9999 329.172 41.5599 329.172 42.2599V67.4599C329.172 68.1599 328.612 68.7199 327.912 68.7199H314.052C313.352 68.7199 312.792 69.2799 312.792 69.9799C312.792 88.8799 310.272 98.2599 310.272 98.9599C310.272 99.6599 310.412 99.9399 311.112 100.36C311.812 100.78 327.912 105.26 331.692 105.26C332.532 105.26 333.372 100.22 334.212 100.22C335.052 100.22 335.892 105.26 336.732 105.26C340.512 105.26 356.612 100.78 357.312 100.36C358.012 99.9399 358.152 99.6599 358.152 98.9599C358.152 98.2599 355.632 88.8799 355.632 69.9799C355.632 69.2799 355.072 68.7199 354.372 68.7199H340.512C339.812 68.7199 339.252 68.1599 339.252 67.4599V42.2599C339.252 41.5599 339.812 40.9999 340.512 40.9999H356.892C361.792 40.9999 365.712 44.9199 365.712 49.8199V51.0799C365.712 51.7799 366.272 52.3399 366.972 52.3399H374.532C375.232 52.3399 375.792 51.7799 375.792 51.0799V39.7399C375.792 20.8399 378.312 11.4599 378.312 10.7599C378.312 10.0599 378.172 9.77993 377.472 9.35993Z" fill="#FF1C31"/>
</svg>

<svg xmlns="http://www.w3.org/2000/svg" fill="none" viewBox="0 0 379 106"><path fill="#FF1C31" d="M88.039 9.36c-.7-.42-16.8-4.9-20.58-4.9-.84 0-1.68 5.04-2.52 5.04-.84 0-1.54-5.18-2.52-6.3S52.339.68 44.779.68c-7.56 0-16.66 1.4-17.64 2.52-.98 1.12-1.68 6.3-2.52 6.3-.84 0-1.68-5.04-2.52-5.04-3.78 0-19.88 4.48-20.58 4.9-.7.42-.84.7-.84 1.4s2.52 10.08 2.52 28.98v11.34c0 .7.56 1.26 1.26 1.26h7.56c.7 0 1.26-.56 1.26-1.26v-1.26c0-4.9 3.92-8.82 8.82-8.82h16.38c.7 0 1.26.56 1.26 1.26v25.2c0 .7-.56 1.26-1.26 1.26h-13.86c-.7 0-1.26.56-1.26 1.26 0 18.9-2.52 28.28-2.52 28.98 0 .7.14.98.84 1.4.7.42 16.8 4.9 20.58 4.9.84 0 1.68-5.04 2.52-5.04.84 0 1.68 5.04 2.52 5.04 3.78 0 19.88-4.48 20.58-4.9.7-.42.84-.7.84-1.4s-2.52-10.08-2.52-28.98c0-.7-.56-1.26-1.26-1.26h-13.86c-.7 0-1.26-.56-1.26-1.26v-25.2c0-.7.56-1.26 1.26-1.26h16.38c4.9 0 8.82 3.92 8.82 8.82v1.26c0 .7.56 1.26 1.26 1.26h7.56c.7 0 1.26-.56 1.26-1.26V39.74c0-18.9 2.52-28.28 2.52-28.98 0-.7-.14-.98-.84-1.4zM190.817 68.72h-13.86c-.7 0-1.26-.56-1.26-1.26v-25.2c0-.7.56-1.26 1.26-1.26h13.86c.7 0 1.26-.56 1.26-1.26 0-18.9 2.52-28.28 2.52-28.98 0-.7-.14-.98-.84-1.4-.7-.42-16.8-4.9-20.58-4.9-.84 0-1.68 5.04-2.52 5.04-.84 0-1.68-5.04-2.52-5.04-3.78 0-19.88 4.48-20.58 4.9-.7.42-.84.7-.84 1.4s2.52 10.08 2.52 28.98c0 .7.56 1.26 1.26 1.26h13.86c.7 0 1.26.56 1.26 1.26v7.56c0 .7-.56 1.26-1.26 1.26h-40.32c-.7 0-1.26-.56-1.26-1.26v-7.56c0-.7.56-1.26 1.26-1.26h13.86c.7 0 1.26-.56 1.26-1.26 0-18.9 2.52-28.28 2.52-28.98 0-.7-.14-.98-.84-1.4-.7-.42-16.8-4.9-20.58-4.9-.84 0-1.68 5.04-2.52 5.04-.84 0-1.68-5.04-2.52-5.04-3.78 0-19.88 4.48-20.58 4.9-.7.42-.84.7-.84 1.4s2.52 10.08 2.52 28.98c0 .7.56 1.26 1.26 1.26h13.86c.7 0 1.26.56 1.26 1.26v25.2c0 .7-.56 1.26-1.26 1.26h-13.86c-.7 0-1.26.56-1.26 1.26 0 18.9-2.52 28.28-2.52 28.98 0 .7.14.98.84 1.4.7.42 16.8 4.9 20.58 4.9.84 0 1.68-5.04 2.52-5.04.84 0 1.68 5.04 2.52 5.04 3.78 0 19.88-4.48 20.58-4.9.7-.42.84-.7.84-1.4s-2.52-10.08-2.52-28.98c0-.7-.56-1.26-1.26-1.26h-13.86c-.7 0-1.26-.56-1.26-1.26V59.9c0-.7.56-1.26 1.26-1.26h40.32c.7 0 1.26.56 1.26 1.26v7.56c0 .7-.56 1.26-1.26 1.26h-13.86c-.7 0-1.26.56-1.26 1.26 0 18.9-2.52 28.28-2.52 28.98 0 .7.14.98.84 1.4.7.42 16.8 4.9 20.58 4.9.84 0 1.68-5.04 2.52-5.04.84 0 1.68 5.04 2.52 5.04 3.78 0 19.88-4.48 20.58-4.9.7-.42.84-.7.84-1.4s-2.52-10.08-2.52-28.98c0-.7-.56-1.26-1.26-1.26zM297.748 69.98c0-.7-.56-1.26-1.26-1.26h-12.18c-.7 0-1.4-.56-2.1-1.68l-15.68-24.64s-.28-.42-.28-.84c0-.28.28-.56.84-.56h2.94c.7 0 1.26-.56 1.26-1.26 0-18.9 2.52-28.28 2.52-28.98 0-.7-.14-.98-.84-1.4-.7-.42-16.8-4.9-20.58-4.9-.84 0-1.68 5.04-2.52 5.04-.84 0-1.68-5.04-2.52-5.04-3.78 0-19.88 4.48-20.58 4.9-.7.42-.84.7-.84 1.4s2.52 10.08 2.52 28.98c0 .7.56 1.26 1.26 1.26h4.62c.56 0 .84.28.84.56 0 .42-.28.84-.28.84l-15.68 24.64c-.7 1.12-1.12 1.68-1.82 1.68h-14.14c-.7 0-1.26.56-1.26 1.26 0 18.9-2.52 28.28-2.52 28.98 0 .7.14.98.84 1.4.7.42 16.8 4.9 20.58 4.9.84 0 1.68-5.04 2.52-5.04.84 0 1.68 5.04 2.52 5.04 3.78 0 19.88-4.48 20.58-4.9.7-.42.84-.7.84-1.4s-2.52-10.08-2.52-28.98c0-.7-.56-1.26-1.26-1.26h-13.3c-.56 0-.98 0-.98-.28 0-.42.28-.84.28-.84l3.36-5.46c.7-1.12 1.12-1.68 1.82-1.68h27.44c.7 0 1.12.56 1.82 1.68l3.22 5.18s.28.42.28.84c0 .28-.28.56-.84.56h-10.5c-.7 0-1.26.56-1.26 1.26 0 18.9-2.52 28.28-2.52 28.98 0 .7.14.98.84 1.4.7.42 16.8 4.9 20.58 4.9.84 0 1.68-5.04 2.52-5.04.84 0 1.68 5.04 2.52 5.04 3.78 0 19.88-4.48 20.58-4.9.7-.42.84-.7.84-1.4s-2.52-10.08-2.52-28.98zm-41.02-17.08h-16.52c-.56 0-.84-.28-.84-.56 0-.42.28-.84.28-.84l5.46-8.82c.7-1.12 1.12-1.68 1.82-1.68h2.94c.7 0 1.12.56 1.82 1.68l5.6 8.82s.28.42.28.84c0 .28-.28.56-.84.56zM377.472 9.36c-.7-.42-16.8-4.9-20.58-4.9-.84 0-1.68 5.04-2.52 5.04-.84 0-1.54-5.18-2.52-6.3S341.772.68 334.212.68c-7.56 0-16.66 1.4-17.64 2.52-.98 1.12-1.68 6.3-2.52 6.3-.84 0-1.68-5.04-2.52-5.04-3.78 0-19.88 4.48-20.58 4.9-.7.42-.84.7-.84 1.4s2.52 10.08 2.52 28.98v11.34c0 .7.56 1.26 1.26 1.26h7.56c.7 0 1.26-.56 1.26-1.26v-1.26c0-4.9 3.92-8.82 8.82-8.82h16.38c.7 0 1.26.56 1.26 1.26v25.2c0 .7-.56 1.26-1.26 1.26h-13.86c-.7 0-1.26.56-1.26 1.26 0 18.9-2.52 28.28-2.52 28.98 0 .7.14.98.84 1.4.7.42 16.8 4.9 20.58 4.9.84 0 1.68-5.04 2.52-5.04.84 0 1.68 5.04 2.52 5.04 3.78 0 19.88-4.48 20.58-4.9.7-.42.84-.7.84-1.4s-2.52-10.08-2.52-28.98c0-.7-.56-1.26-1.26-1.26h-13.86c-.7 0-1.26-.56-1.26-1.26v-25.2c0-.7.56-1.26 1.26-1.26h16.38c4.9 0 8.82 3.92 8.82 8.82v1.26c0 .7.56 1.26 1.26 1.26h7.56c.7 0 1.26-.56 1.26-1.26V39.74c0-18.9 2.52-28.28 2.52-28.98 0-.7-.14-.98-.84-1.4z"/></svg>
